src/img/HomePage/Chopsticks/2Right.svg

<?xml version="1.0" encoding="UTF-8"?> <svg xmlns="http://www.w3.org/2000/svg" width="117" height="247" viewBox="0 0 117 247" fill="none"> <path fill-rule="evenodd" clip-rule="evenodd" d="M12.9617 233.317C2.12934 227.622 -2.28678 217.252 2.17097 207.981C4.67764 202.768 8.77916 199.48 14.8348 197.826C26.1213 194.744 38.7227 200.547 42.3068 210.476C44.4597 216.439 44.2014 220.714 41.3967 225.534C38.7154 230.142 33.8741 233.61 28.4053 234.838C24.0564 235.816 16.2519 235.047 12.9617 233.317ZM76.4239 238.372C73.745 233.952 71.4928 229.961 71.4196 229.5C71.2573 228.482 102.31 214.09 103.946 214.425C104.861 214.613 110.847 223.649 114.583 230.486C114.993 231.235 109.987 233.963 98.7698 239.103C89.7438 243.24 82.1185 246.575 81.8265 246.515C81.5336 246.455 79.1021 242.79 76.4239 238.372ZM13.5802 230.754C-1.55868 223.185 0.961479 202.922 17.4463 199.672C24.9784 198.187 34.2716 202.155 38.2782 208.565C40.8959 212.755 41.325 215.338 40.2362 220.372C37.9777 230.817 24.3347 236.131 13.5802 230.754ZM90.5122 174.666C82.8768 169.052 76.7604 162.275 66.2516 147.786C47.4277 121.832 34.7699 93.6255 36.0827 80.5586C36.4873 76.5351 36.8595 75.7548 38.9443 74.5577C41.9925 72.8074 46.4199 74.1331 52.5125 78.6202C73.8634 94.3454 104.754 145.723 106.732 168.796C107.234 174.659 106.101 177.714 103.003 178.851C99.6363 180.086 96.417 179.008 90.5122 174.666ZM83.4161 158.106C69.1945 145.259 49.5149 106.7 50.4309 93.4773C50.7679 88.6265 51.9285 88.5308 57.0354 92.9313C70.1018 104.19 87.9762 137.084 90.7231 154.926C91.8538 162.275 89.2739 163.397 83.4161 158.106ZM86.9669 49.4944C82.6297 47.587 79.3394 44.7556 76.7664 40.7153C72.4012 33.8622 72.7425 26.5249 77.7068 20.4785C88.2394 7.6514 110.941 11.6861 115.954 27.2759C119.927 39.6344 110.386 51.3421 96.3574 51.3217C91.712 51.3149 90.6258 51.1036 86.9669 49.4944ZM89.2671 47.4682C81.6857 44.676 77.398 39.4322 76.7285 32.1314C75.7636 21.619 86.6155 13.4293 98.3586 15.8077C103.978 16.9452 106.501 18.3363 109.951 22.1985C119.151 32.498 111.945 47.9476 97.5785 48.7269C94.9794 48.8678 92.8349 48.933 92.8118 48.8709C92.7897 48.8089 91.1942 48.1776 89.2671 47.4682ZM60.5454 7.74839C59.6824 5.89383 59.7531 4.78701 60.8711 2.61228C62.0638 0.294686 62.7442 -0.114294 65.0206 0.118978C69.9481 0.624108 70.7972 5.69998 66.4907 8.91277C63.5892 11.0778 61.9455 10.7554 60.5454 7.74839Z" fill="#201B19"></path> </svg>

<svg xmlns="http://www.w3.org/2000/svg" width="117" height="247" fill="none"><path fill-rule="evenodd" clip-rule="evenodd" d="M12.962 233.317C2.129 227.622-2.287 217.252 2.17 207.981c2.507-5.213 6.608-8.501 12.664-10.155 11.286-3.082 23.888 2.721 27.472 12.65 2.153 5.963 1.894 10.238-.91 15.058-2.682 4.608-7.523 8.076-12.992 9.304-4.349.978-12.153.209-15.443-1.521Zm63.462 5.055c-2.679-4.42-4.931-8.411-5.004-8.872-.163-1.018 30.89-15.41 32.526-15.075.915.188 6.901 9.224 10.637 16.061.41.749-4.596 3.477-15.813 8.617-9.026 4.137-16.651 7.472-16.944 7.412-.292-.06-2.724-3.725-5.402-8.143Zm-62.844-7.618c-15.139-7.569-12.619-27.832 3.866-31.082 7.532-1.485 16.826 2.483 20.832 8.893 2.618 4.19 3.047 6.773 1.958 11.807-2.258 10.445-15.901 15.759-26.656 10.382Zm76.932-56.088c-7.635-5.614-13.752-12.391-24.26-26.88-18.824-25.954-31.482-54.16-30.17-67.227.405-4.024.777-4.804 2.862-6.001 3.048-1.75 7.476-.425 13.569 4.062 21.35 15.725 52.241 67.103 54.219 90.176.502 5.863-.631 8.918-3.729 10.055-3.367 1.235-6.586.157-12.49-4.185Zm-7.096-16.56C69.195 145.259 49.515 106.7 50.431 93.477c.337-4.85 1.498-4.946 6.604-.546 13.067 11.259 30.941 44.153 33.688 61.995 1.13 7.349-1.45 8.471-7.307 3.18Zm3.55-108.612c-4.336-1.907-7.627-4.738-10.2-8.779-4.365-6.853-4.023-14.19.94-20.237 10.533-12.827 33.235-8.792 38.248 6.798 3.973 12.358-5.568 24.066-19.597 24.046-4.645-.007-5.731-.218-9.39-1.828Zm2.301-2.026c-7.581-2.792-11.869-8.036-12.538-15.337-.965-10.512 9.886-18.702 21.63-16.323 5.619 1.137 8.142 2.528 11.592 6.39 9.2 10.3 1.994 25.75-12.372 26.529-2.6.14-4.744.206-4.767.144-.022-.062-1.618-.693-3.545-1.403ZM60.545 7.748c-.863-1.854-.792-2.961.326-5.136C62.064.295 62.744-.114 65.021.12c4.927.505 5.776 5.581 1.47 8.794-2.902 2.165-4.545 1.842-5.946-1.165Z" fill="#201B19"/></svg>
